flaticon/transport/car.svg

<svg xmlns="http://www.w3.org/2000/svg" width="32" height="32" viewBox="0 0 24 24">
    <path d="M7.199219 12.800781L4 12.800781C3.761719 12.800781 3.601562 12.960938 3.601562 13.199219L3.601562 15.199219C3.601562 15.441406 3.761719 15.601562 4 15.601562L7.199219 15.601562C7.441406 15.601562 7.601562 15.441406 7.601562 15.199219L7.601562 13.199219C7.601562 12.960938 7.441406 12.800781 7.199219 12.800781zM6.800781 14.800781L4.398438 14.800781 4.398438 13.601562 6.800781 13.601562zM20 12.800781L16.800781 12.800781C16.558594 12.800781 16.398438 12.960938 16.398438 13.199219L16.398438 15.199219C16.398438 15.441406 16.558594 15.601562 16.800781 15.601562L20 15.601562C20.238281 15.601562 20.398438 15.441406 20.398438 15.199219L20.398438 13.199219C20.398438 12.960938 20.238281 12.800781 20 12.800781zM19.601562 14.800781L17.199219 14.800781 17.199219 13.601562 19.601562 13.601562zM10.398438 13.601562L13.601562 13.601562C13.839844 13.601562 14 13.441406 14 13.199219 14 12.960938 13.839844 12.800781 13.601562 12.800781L10.398438 12.800781C10.160156 12.800781 10 12.960938 10 13.199219 10 13.441406 10.160156 13.601562 10.398438 13.601562zM14.800781 14.398438L9.199219 14.398438C8.960938 14.398438 8.800781 14.558594 8.800781 14.800781 8.800781 15.039062 8.960938 15.199219 9.199219 15.199219L14.800781 15.199219C15.039062 15.199219 15.199219 15.039062 15.199219 14.800781 15.199219 14.558594 15.039062 14.398438 14.800781 14.398438zM14.800781 14.398438"/>
    <path d="M 22.359375 7.199219 L 23.28125 7.199219 C 23.679688 7.199219 24 6.878906 24 6.441406 L 24 3.921875 C 24 3.519531 23.679688 3.199219 23.28125 3.199219 L 22.359375 3.199219 C 21.960938 3.199219 21.640625 3.519531 21.640625 3.921875 L 21.640625 4.800781 L 20.601562 4.800781 L 19.960938 2.441406 C 19.679688 1.480469 18.800781 0.800781 17.800781 0.800781 L 6.199219 0.800781 C 5.199219 0.800781 4.320312 1.480469 4.039062 2.441406 L 3.398438 4.800781 L 2.398438 4.800781 L 2.398438 3.921875 C 2.398438 3.519531 2.078125 3.199219 1.640625 3.199219 L 0.71875 3.199219 C 0.320312 3.199219 0 3.519531 0 3.921875 L 0 6.480469 C 0 6.878906 0.320312 7.199219 0.71875 7.199219 L 1.679688 7.199219 C 2.078125 7.199219 2.398438 6.878906 2.398438 6.441406 L 2.398438 5.601562 L 3.183594 5.601562 L 2.023438 9.863281 L 1 11.878906 C 0.878906 12.160156 0.800781 12.480469 0.800781 12.800781 L 0.800781 17.265625 C 0.328125 17.421875 0 17.863281 0 18.398438 L 0 19.199219 C 0 19.878906 0.519531 20.398438 1.199219 20.398438 L 2 20.398438 L 2 21.601562 C 2 22.480469 2.71875 23.199219 3.601562 23.199219 L 5.199219 23.199219 C 6.078125 23.199219 6.800781 22.480469 6.800781 21.601562 L 6.800781 20.398438 L 16.800781 20.398438 L 16.800781 21.601562 C 16.800781 22.480469 17.519531 23.199219 18.398438 23.199219 L 20 23.199219 C 20.878906 23.199219 21.601562 22.480469 21.601562 21.601562 L 21.601562 20.398438 L 22.800781 20.398438 C 23.480469 20.398438 24 19.878906 24 19.199219 L 24 18.398438 C 24 17.863281 23.671875 17.421875 23.199219 17.265625 L 23.199219 12.800781 C 23.199219 12.480469 23.121094 12.160156 23 11.878906 L 21.976562 9.863281 L 20.816406 5.601562 L 21.640625 5.601562 L 21.640625 6.480469 C 21.640625 6.878906 21.960938 7.199219 22.359375 7.199219 Z M 1.601562 6.398438 L 0.800781 6.398438 L 0.800781 4 L 1.601562 4 Z M 6 21.601562 C 6 22.039062 5.640625 22.398438 5.199219 22.398438 L 3.601562 22.398438 C 3.160156 22.398438 2.800781 22.039062 2.800781 21.601562 L 2.800781 20.398438 L 6 20.398438 Z M 20.800781 21.601562 C 20.800781 22.039062 20.441406 22.398438 20 22.398438 L 18.398438 22.398438 C 17.960938 22.398438 17.601562 22.039062 17.601562 21.601562 L 17.601562 20.398438 L 20.800781 20.398438 Z M 23.199219 19.199219 C 23.199219 19.441406 23.039062 19.601562 22.800781 19.601562 L 1.199219 19.601562 C 0.960938 19.601562 0.800781 19.441406 0.800781 19.199219 L 0.800781 18.398438 C 0.800781 18.160156 0.960938 18 1.199219 18 L 22.800781 18 C 23.039062 18 23.199219 18.160156 23.199219 18.398438 Z M 22.398438 12.800781 L 22.398438 17.199219 L 1.601562 17.199219 L 1.601562 12.800781 C 1.601562 12.601562 1.640625 12.398438 1.71875 12.238281 L 2.640625 10.398438 L 21.359375 10.398438 L 22.28125 12.238281 C 22.359375 12.441406 22.398438 12.601562 22.398438 12.800781 Z M 13.761719 9.601562 L 14.613281 8.75 C 14.667969 8.714844 14.714844 8.667969 14.75 8.613281 L 16.679688 6.679688 C 16.839844 6.519531 16.839844 6.28125 16.679688 6.121094 C 16.519531 5.960938 16.28125 5.960938 16.121094 6.121094 L 14.800781 7.441406 L 14.800781 6.800781 C 14.800781 6.558594 14.640625 6.398438 14.398438 6.398438 C 14.160156 6.398438 14 6.558594 14 6.800781 L 14 8.238281 L 12.640625 9.601562 L 8.160156 9.601562 L 9.011719 8.75 C 9.070312 8.714844 9.117188 8.667969 9.148438 8.613281 L 11.078125 6.679688 C 11.238281 6.519531 11.238281 6.28125 11.078125 6.121094 C 10.921875 5.960938 10.679688 5.960938 10.519531 6.121094 L 9.199219 7.441406 L 9.199219 6.800781 C 9.199219 6.558594 9.039062 6.398438 8.800781 6.398438 C 8.558594 6.398438 8.398438 6.558594 8.398438 6.800781 L 8.398438 8.238281 L 7.039062 9.601562 L 2.921875 9.601562 L 4.800781 2.640625 C 5 2.039062 5.558594 1.601562 6.199219 1.601562 L 17.800781 1.601562 C 18.441406 1.601562 19 2.039062 19.199219 2.640625 L 21.078125 9.601562 Z M 22.398438 4 L 23.199219 4 L 23.199219 6.398438 L 22.398438 6.398438 Z M 22.398438 4"/>
</svg>

<svg xmlns="http://www.w3.org/2000/svg" width="32" height="32" viewBox="0 0 24 24">
    <path d="M7.2 12.8H4c-.238 0-.398.16-.398.4v2c0 .241.16.402.398.402h3.2c.241 0 .402-.16.402-.403v-2c0-.238-.16-.398-.403-.398zm-.4 2H4.399v-1.198h2.403zm0 0M20 12.8h-3.2c-.241 0-.402.16-.402.4v2c0 .241.16.402.403.402H20c.238 0 .398-.16.398-.403v-2c0-.238-.16-.398-.398-.398zm-.398 2h-2.403v-1.198h2.403zm0 0M10.398 13.602h3.204c.238 0 .398-.16.398-.403 0-.238-.16-.398-.398-.398h-3.204c-.238 0-.398.16-.398.398 0 .242.16.403.398.403zm0 0M14.8 14.398H9.2c-.24 0-.4.16-.4.403 0 .238.16.398.4.398h5.6c.24 0 .4-.16.4-.398 0-.242-.16-.403-.4-.403zm0 0"/>
    <path d="M22.36 7.2h.921c.399 0 .719-.321.719-.759v-2.52a.718.718 0 0 0-.719-.722h-.922a.718.718 0 0 0-.718.723V4.8H20.6l-.64-2.36c-.281-.96-1.16-1.64-2.16-1.64H6.199c-1 0-1.879.68-2.16 1.64l-.64 2.36h-1v-.88c0-.401-.32-.722-.758-.722H.719A.718.718 0 0 0 0 3.922V6.48c0 .399.32.72.719.72h.96c.4 0 .72-.321.72-.759v-.84h.785l-1.16 4.262L1 11.88c-.121.281-.2.601-.2.922v4.465c-.472.156-.8.597-.8 1.132v.801c0 .68.52 1.2 1.2 1.2H2v1.203c0 .878.719 1.597 1.602 1.597h1.597c.88 0 1.602-.719 1.602-1.597v-1.204h10v1.204c0 .878.719 1.597 1.597 1.597H20c.879 0 1.602-.719 1.602-1.597v-1.204H22.8c.68 0 1.199-.52 1.199-1.199v-.8c0-.536-.328-.977-.8-1.133V12.8c0-.32-.079-.64-.2-.922l-1.023-2.016-1.16-4.261h.824v.878c0 .399.32.72.718.72zM1.601 6.397H.8V4h.8zM6 21.602c0 .437-.36.796-.8.796H3.601c-.442 0-.801-.359-.801-.796v-1.204H6zm14.8 0c0 .437-.359.796-.8.796h-1.602a.8.8 0 0 1-.796-.796v-1.204H20.8zm2.4-2.403c0 .242-.16.403-.4.403H1.2c-.24 0-.4-.16-.4-.403v-.8c0-.239.16-.399.4-.399h21.6c.24 0 .4.16.4.398zm-.802-6.398v4.398H1.602v-4.398c0-.2.039-.403.117-.563l.922-1.84h18.718l.922 1.84c.078.203.117.364.117.563zm-8.636-3.2l.851-.851a.456.456 0 0 0 .137-.137l1.93-1.933a.385.385 0 0 0 0-.559.385.385 0 0 0-.559 0l-1.32 1.32v-.64c0-.242-.16-.403-.403-.403-.238 0-.398.16-.398.403v1.437l-1.36 1.364H8.16l.852-.852a.382.382 0 0 0 .136-.137l1.93-1.933a.385.385 0 0 0 0-.559.385.385 0 0 0-.558 0L9.2 7.441v-.64c0-.242-.16-.403-.4-.403-.241 0-.402.16-.402.403v1.437L7.04 9.602H2.922L4.8 2.64C5 2.039 5.559 1.6 6.199 1.6h11.602c.64 0 1.199.438 1.398 1.04l1.88 6.96zM22.398 4h.801v2.398h-.8zm0 0"/>
</svg>
